assets/Fish cake with swirl/Flat/fish_cake_with_swirl_flat.svg

<svg width="32" height="32" viewBox="0 0 32 32" fill="none" xmlns="http://www.w3.org/2000/svg">
<path d="M14.9713 1.13984L15.0484 1.15193C15.5196 1.2255 15.9021 1.28313 16.2637 1.28313C16.6254 1.28313 17.0079 1.2255 17.479 1.15193L17.5562 1.13984C18.2234 1.03506 19.1202 0.894235 19.9888 1.12619C20.8989 1.36315 21.6232 1.95159 22.1559 2.38438L22.2143 2.43181C22.5716 2.72166 22.8554 2.94911 23.1445 3.11756C23.4437 3.28959 23.7922 3.42659 24.2288 3.59548L24.3003 3.62309C24.9356 3.86828 25.7946 4.19975 26.4408 4.84603C27.0871 5.4923 27.4186 6.35123 27.6638 6.98659L27.6914 7.05807C27.8606 7.49555 27.9978 7.84453 28.1703 8.14417L28.172 8.14699C28.3391 8.43949 28.5683 8.72658 28.8631 9.09121L28.9093 9.14834C29.3377 9.67733 29.9187 10.3949 30.1597 11.2944C30.393 12.1641 30.2519 13.0625 30.147 13.7307L30.1349 13.8078C30.0613 14.279 30.0037 14.6615 30.0037 15.0231C30.0037 15.3844 30.0612 15.765 30.1348 16.2346L30.14 16.2678C30.1938 16.6111 30.2561 17.0089 30.2784 17.4184L30.3032 17.5884C30.3229 17.723 30.3447 17.8588 30.3677 18.0024L30.3802 18.08C30.4916 18.7706 30.6405 19.6939 30.3996 20.5921L30.3987 20.5953C30.149 21.5134 29.5542 22.2472 29.1122 22.7926L29.0657 22.85C28.7729 23.2117 28.5414 23.5009 28.3687 23.7947C28.1939 24.1001 28.0549 24.4545 27.8843 24.8964L27.8569 24.9677C27.6068 25.6172 27.2706 26.4903 26.6108 27.15C25.9511 27.8098 25.078 28.146 24.4285 28.3961L24.3572 28.4236C23.9144 28.5945 23.5594 28.7337 23.2535 28.9091C22.9555 29.0822 22.6642 29.3164 22.2984 29.6141L22.2401 29.6615C21.7002 30.1014 20.9706 30.696 20.0526 30.9388C19.1686 31.1787 18.2561 31.0353 17.5754 30.9284L17.4975 30.9162C17.0201 30.8416 16.6315 30.7829 16.2637 30.7829C15.8929 30.7829 15.5014 30.841 15.0229 30.9145L14.9461 30.9263C14.265 31.0315 13.3575 31.1715 12.4788 30.9399L12.4713 30.9379C11.5533 30.6882 10.8194 30.0934 10.2741 29.6514L10.2167 29.6049C9.85498 29.3121 9.56571 29.0806 9.27196 28.9079C8.9665 28.7331 8.61213 28.5941 8.17022 28.4236L8.09892 28.3961C7.44946 28.146 6.57637 27.8098 5.91661 27.15C5.25686 26.4903 4.92066 25.6172 4.67057 24.9677L4.64309 24.8964C4.47219 24.4536 4.33301 24.0987 4.15762 23.7928C3.98449 23.4948 3.75027 23.2034 3.4526 22.8376L3.40513 22.7793C2.96513 22.2393 2.3704 21.5095 2.12765 20.5912C1.89366 19.7256 2.03462 18.8248 2.13882 18.1589L2.15103 18.0808C2.1773 17.912 2.20175 17.7546 2.22269 17.5993L2.25094 17.3898C2.27466 16.9925 2.33502 16.6063 2.38732 16.2717L2.39251 16.2384C2.46609 15.7673 2.52372 15.3848 2.52372 15.0231C2.52372 14.6615 2.46609 14.279 2.39251 13.8078L2.38042 13.7307C2.27565 13.0634 2.13483 12.1667 2.36677 11.2982C2.60371 10.3879 3.19217 9.66365 3.62497 9.13096L3.6724 9.07255C3.96227 8.71519 4.18973 8.43143 4.35819 8.14226C4.5302 7.84305 4.6672 7.49462 4.83607 7.05807L4.86368 6.98659C5.10887 6.35123 5.44034 5.4923 6.08661 4.84603C6.73289 4.19975 7.59182 3.86828 8.22718 3.62309L8.29866 3.59548C8.73614 3.42625 9.08512 3.28903 9.38476 3.11651L9.38758 3.11489C9.68008 2.94775 9.96716 2.71858 10.3318 2.42376L10.3889 2.37754C10.9179 1.94917 11.6354 1.36814 12.535 1.12719C13.4047 0.893834 14.3031 1.03491 14.9713 1.13984Z" fill="#B4ACBC"/>
<path d="M29.0038 15.0231C29.0038 13.8531 29.4838 12.6331 29.1938 11.5531C28.8938 10.4331 27.8638 9.62312 27.3038 8.64312C26.7338 7.65312 26.5338 6.35312 25.7338 5.55312C24.9338 4.75312 23.6338 4.55312 22.6438 3.98312C21.6638 3.41312 20.8538 2.38312 19.7338 2.09312C18.6538 1.80312 17.4338 2.28312 16.2638 2.28312C15.0938 2.28312 13.8738 1.80312 12.7938 2.09312C11.6738 2.39312 10.8638 3.42312 9.88384 3.98312C8.89384 4.55312 7.59384 4.75312 6.79384 5.55312C5.99384 6.35312 5.79384 7.65312 5.22384 8.64312C4.65384 9.62312 3.62384 10.4331 3.33384 11.5531C3.04384 12.6331 3.52384 13.8531 3.52384 15.0231C3.52384 16.1931 3.04384 17.4131 3.33384 18.4931C3.63384 19.6131 4.66384 20.4231 5.22384 21.4031C5.79384 22.3931 5.99384 23.6931 6.79384 24.4931C7.59384 25.2931 8.89384 25.4931 9.88384 26.0631C10.8638 26.6331 11.6738 27.6631 12.7938 27.9531C13.8738 28.2431 15.0938 27.7631 16.2638 27.7631C17.4338 27.7631 18.6538 28.2431 19.7338 27.9531C20.8538 27.6531 21.6638 26.6231 22.6438 26.0631C23.6338 25.4931 24.9338 25.2931 25.7338 24.4931C26.5338 23.6931 26.7338 22.3931 27.3038 21.4031C27.8738 20.4231 28.9038 19.6131 29.1938 18.4931C29.4838 17.4031 29.0038 16.1931 29.0038 15.0231Z" fill="#F3EEF8"/>
<path d="M21.9039 18.6231C21.0039 19.7831 19.7139 20.5231 18.2639 20.7031C16.8439 20.8831 15.4339 20.5131 14.2839 19.6531C14.2639 19.6431 14.2439 19.6231 14.2239 19.6131L14.2039 19.5931C13.3339 18.9131 12.8839 17.8231 13.0639 16.6631C13.0839 16.5431 13.1139 16.4131 13.1539 16.3031C13.8439 14.1631 16.3139 13.5231 17.9339 14.7331C17.9439 14.7331 17.9439 14.7431 17.9539 14.7431C18.0539 14.8231 18.1439 14.9231 18.1839 15.0531C18.2939 15.3631 18.1739 15.6931 17.8639 15.8631C17.6539 15.9831 17.3839 15.9431 17.1839 15.7931L17.1739 15.7831L17.1439 15.7631C16.5939 15.3531 15.8539 15.2631 15.2539 15.6131C14.5739 16.0031 14.2439 16.7031 14.3339 17.4131C14.3939 17.8731 14.6239 18.2831 14.9839 18.5731L15.0039 18.5831C15.0139 18.5931 15.0339 18.6031 15.0539 18.6231C15.9339 19.2831 17.0039 19.5631 18.0939 19.4231C19.2039 19.2831 20.1939 18.7131 20.8739 17.8331C21.5639 16.9431 21.8639 15.8331 21.7139 14.7131C21.5739 13.6831 21.0439 12.7631 20.2639 12.0731L20.1339 11.9631L20.1239 11.9531C20.0939 11.9331 20.0639 11.9131 20.0439 11.8931C18.6639 10.8631 16.9639 10.4131 15.2539 10.6231C13.5039 10.8431 11.9439 11.7331 10.8639 13.1331C10.1239 14.0931 9.66393 15.2131 9.52393 16.3831C9.49393 16.6731 9.27393 16.9031 8.98393 16.9531H8.97393C8.56393 17.0231 8.18393 16.6731 8.23393 16.2531C8.39393 14.8431 8.94393 13.4931 9.83393 12.3331C11.1239 10.6631 12.9939 9.59308 15.0839 9.33308C17.1339 9.07308 19.1639 9.61308 20.8139 10.8431C20.8439 10.8631 20.8839 10.8931 20.9139 10.9231L20.9339 10.9431C22.0839 11.8431 22.8139 13.1231 22.9939 14.5731C23.1839 16.0331 22.7939 17.4731 21.9039 18.6231Z" fill="#F8312F"/>
</svg>

<svg xmlns="http://www.w3.org/2000/svg" width="32" height="32" fill="none"><path fill="#B4ACBC" d="m14.971 1.14.077.012c.472.074.854.131 1.216.131.361 0 .744-.057 1.215-.131l.077-.012c.667-.105 1.564-.246 2.433-.014.91.237 1.634.826 2.167 1.258l.058.048c.358.29.641.517.93.686.3.172.648.309 1.085.477l.071.028c.636.245 1.495.577 2.14 1.223.647.646.979 1.505 1.224 2.14l.027.072c.17.438.307.787.48 1.086l.001.003c.167.292.396.58.691.944l.046.057c.429.53 1.01 1.247 1.25 2.146.234.87.093 1.768-.012 2.437l-.012.077c-.074.471-.131.854-.131 1.215 0 .361.057.742.13 1.212l.006.033c.054.343.116.74.138 1.15l.025.17c.02.135.042.27.065.414l.012.078c.112.69.26 1.614.02 2.512l-.001.003c-.25.918-.845 1.652-1.287 2.198l-.046.057c-.293.362-.525.65-.697.945-.175.305-.314.66-.485 1.101l-.027.072c-.25.65-.586 1.522-1.246 2.182-.66.66-1.533.996-2.183 1.246l-.07.028c-.444.17-.799.31-1.105.485-.297.173-.589.407-.955.705l-.058.047c-.54.44-1.27 1.035-2.187 1.278-.884.24-1.797.096-2.478-.01l-.078-.013c-.477-.074-.866-.133-1.233-.133-.371 0-.763.058-1.241.131l-.077.012c-.681.106-1.588.246-2.467.014l-.008-.002c-.918-.25-1.652-.845-2.197-1.287l-.057-.046c-.362-.293-.651-.524-.945-.697-.306-.175-.66-.314-1.102-.484l-.071-.028c-.65-.25-1.523-.586-2.182-1.246-.66-.66-.996-1.533-1.246-2.182l-.028-.072c-.17-.442-.31-.797-.485-1.103-.174-.298-.408-.59-.705-.955l-.048-.059c-.44-.54-1.035-1.27-1.277-2.188-.234-.865-.093-1.766.01-2.432l.013-.078c.026-.169.05-.326.072-.482l.028-.21c.024-.396.084-.783.136-1.117l.006-.034c.073-.47.13-.853.13-1.215 0-.361-.057-.744-.13-1.215l-.013-.077c-.104-.668-.245-1.564-.013-2.433.237-.91.825-1.634 1.258-2.167l.047-.058c.29-.358.518-.642.686-.93.172-.3.31-.648.478-1.085l.028-.071c.245-.636.576-1.495 1.223-2.141.646-.646 1.505-.978 2.14-1.223l.072-.028c.437-.169.786-.306 1.086-.478l.003-.002c.292-.167.58-.396.944-.691l.057-.046c.529-.429 1.246-1.01 2.146-1.25.87-.234 1.768-.093 2.436.012Z"/><path fill="#F3EEF8" d="M29.004 15.023c0-1.17.48-2.39.19-3.47-.3-1.12-1.33-1.93-1.89-2.91-.57-.99-.77-2.29-1.57-3.09-.8-.8-2.1-1-3.09-1.57-.98-.57-1.79-1.6-2.91-1.89-1.08-.29-2.3.19-3.47.19-1.17 0-2.39-.48-3.47-.19-1.12.3-1.93 1.33-2.91 1.89-.99.57-2.29.77-3.09 1.57-.8.8-1 2.1-1.57 3.09-.57.98-1.6 1.79-1.89 2.91-.29 1.08.19 2.3.19 3.47 0 1.17-.48 2.39-.19 3.47.3 1.12 1.33 1.93 1.89 2.91.57.99.77 2.29 1.57 3.09.8.8 2.1 1 3.09 1.57.98.57 1.79 1.6 2.91 1.89 1.08.29 2.3-.19 3.47-.19 1.17 0 2.39.48 3.47.19 1.12-.3 1.93-1.33 2.91-1.89.99-.57 2.29-.77 3.09-1.57.8-.8 1-2.1 1.57-3.09.57-.98 1.6-1.79 1.89-2.91.29-1.09-.19-2.3-.19-3.47Z"/><path fill="#F8312F" d="M21.904 18.623c-.9 1.16-2.19 1.9-3.64 2.08-1.42.18-2.83-.19-3.98-1.05-.02-.01-.04-.03-.06-.04l-.02-.02c-.87-.68-1.32-1.77-1.14-2.93.02-.12.05-.25.09-.36a3.08 3.08 0 0 1 4.78-1.57c.01 0 .01.01.02.01.1.08.19.18.23.31.11.31-.01.64-.32.81-.21.12-.48.08-.68-.07l-.01-.01-.03-.02c-.55-.41-1.29-.5-1.89-.15-.68.39-1.01 1.09-.92 1.8.06.46.29.87.65 1.16l.02.01c.01.01.03.02.05.04.88.66 1.95.94 3.04.8 1.11-.14 2.1-.71 2.78-1.59.69-.89.99-2 .84-3.12-.14-1.03-.67-1.95-1.45-2.64l-.13-.11-.01-.01a6.62 6.62 0 0 0-4.87-1.33 6.536 6.536 0 0 0-4.39 2.51c-.74.96-1.2 2.08-1.34 3.25-.03.29-.25.52-.54.57h-.01a.64.64 0 0 1-.74-.7 7.9 7.9 0 0 1 1.6-3.92 7.822 7.822 0 0 1 5.25-3c2.05-.26 4.08.28 5.73 1.51a.7.7 0 0 1 .1.08l.02.02c1.15.9 1.88 2.18 2.06 3.63.19 1.46-.2 2.9-1.09 4.05Z"/></svg>
